assets/icons/kids/home.svg

<svg width="24" height="24" viewBox="0 0 24 24" fill="none" xmlns="http://www.w3.org/2000/svg">
<path d="M11.4991 2.91678C11.8024 2.62288 12.2842 2.62435 12.586 2.91971L21.3839 11.5271C21.8824 12.0155 21.5369 12.8627 20.8389 12.8631H19.627C19.2235 12.8633 18.8872 13.1719 18.8516 13.574L18.2042 20.8904C18.1684 21.2924 17.8314 21.6004 17.4278 21.6004H6.52059C6.10778 21.6003 5.76618 21.2781 5.74227 20.866L5.32039 13.5974C5.29648 13.1853 4.95582 12.8631 4.54305 12.8631H3.16414C2.4644 12.8627 2.11969 12.0114 2.62215 11.5242L11.4991 2.91678ZM11.9054 14.9705C11.0447 14.9705 10.3469 15.6685 10.3468 16.5291V18.5017C10.3468 19.3624 11.0446 20.0603 11.9054 20.0603H12.1007C12.9614 20.0603 13.6592 19.3624 13.6593 18.5017V16.5291C13.6591 15.6685 12.9613 14.9705 12.1007 14.9705H11.9054Z" fill="#0077CC"/>
<path d="M5.31898 13.6065C5.2094 12.9446 4.24506 12.7912 3.74463 12.6004C9.46202 12.6004 20.9091 12.3383 20.3502 12.602C19.7943 12.8644 19.0389 12.9198 18.8526 13.6065H5.31898Z" fill="#005999"/>
<path d="M12.5908 2.93124L21.388 11.5388C21.8872 12.0272 21.5414 12.8751 20.8431 12.8751H3.16913C2.46908 12.8751 2.12408 12.0237 2.62665 11.5364L11.5033 2.92879C11.8066 2.63474 12.2889 2.63583 12.5908 2.93124Z" fill="#41A5EE"/>
<path d="M13.6196 6.62753C13.7912 6.43459 14.0864 6.41731 14.2794 6.58885L16.6653 8.70878C16.8582 8.88036 16.8755 9.17678 16.704 9.36971C16.5324 9.56262 16.236 9.57992 16.0431 9.40839L13.6583 7.28729C13.4653 7.11572 13.4481 6.8205 13.6196 6.62753Z" fill="#97D0F9"/>
</svg>

<svg xmlns="http://www.w3.org/2000/svg" width="24" height="24" fill="none" viewBox="0 0 24 24"><path fill="#07c" d="M11.5 2.917a.78.78 0 0 1 1.086.003l8.798 8.607a.78.78 0 0 1-.545 1.336h-1.212a.78.78 0 0 0-.775.711l-.648 7.316a.78.78 0 0 1-.776.71H6.52a.78.78 0 0 1-.779-.734l-.422-7.269a.78.78 0 0 0-.777-.734H3.164a.78.78 0 0 1-.542-1.339zm.405 12.054c-.86 0-1.558.697-1.558 1.558v1.973c0 .86.698 1.558 1.558 1.558h.196c.86 0 1.558-.698 1.558-1.558v-1.973a1.56 1.56 0 0 0-1.558-1.559z"/><path fill="#005999" d="M5.319 13.607c-.11-.662-1.074-.816-1.574-1.007 5.717 0 17.164-.262 16.605.002-.556.262-1.311.318-1.497 1.005z"/><path fill="#41a5ee" d="m12.59 2.931 8.798 8.608a.78.78 0 0 1-.545 1.336H3.17a.78.78 0 0 1-.542-1.339l8.876-8.607a.78.78 0 0 1 1.088.002"/><path fill="#97d0f9" d="M13.62 6.628a.467.467 0 0 1 .66-.04l2.385 2.12a.469.469 0 0 1-.622.7l-2.385-2.12a.467.467 0 0 1-.038-.66"/></svg>
